X: 12340
T: Falcon, The
R: reel
M: 4/4
K: Gmajor
G3g edBG|DGFA GAB/c/d|eAAG ABcd|eaag fdcA|
G3g edBG|DGFA BGB/c/d|eaag f3g|fdcA G3F:|
|:EBAd Bedf|geed e2de|~f3g afef|defd AGFD|
~E3B ABdf|geed e2B/c/d|eaag f3g|fdcA G3F:|

